X:184
T:Bugle Solo TS.184
M:6/8
L:1/8
Q:3/8=100
S:Thomas Sands’ MS,1810,Lincolnshire
R:jig
O:England;Lincolnshire
Z:vmp.Ruairidh Greig, 2011
K:D
g|fed dcd|efg afd|AAAd2g|AAAd2g|
fed dcd|efg afd|Agf Aag|fddd2:|
|:A/G/|FGA ABc|dcB Bdf|Bcd def|geee2 A/G/|
FGA Bcd|dcB A2″quavers in ms”a/g/|fdd dfa|fddd2:|]

